X: 15618
T: Goat's, The
R: polka
M: 2/4
K: Bminor
|:f2 f>e|dB FB|dB BA|Bc de|
f2 f>e|dB FB|dB BA|F2 F2:|
|:B>A Bc|dA de|fg/f/ ed|FA Bc|
B>A Bc|dA de|fg/f/ ed|F2 F2:|

